symbols/web/local_mall/materialsymbolsoutlined/local_mall_grad200fill1_48px.svg

<svg xmlns="http://www.w3.org/2000/svg" height="48" width="48"><path d="M17.45 11.2h13.1q0-2.8-1.9-4.675T24 4.65q-2.8 0-4.675 1.9T17.45 11.2ZM24 27.6q4.25 0 7.35-3.1 3.1-3.1 3.1-7.35H30.8q0 2.8-2.025 4.8t-4.775 2q-2.8 0-4.8-2.025t-2-4.775h-3.65q0 4.25 3.1 7.35 3.1 3.1 7.35 3.1Zm15.15 17.65H8.85q-1.45 0-2.55-1.1-1.1-1.1-1.1-2.55V14.85q0-1.45 1.1-2.55 1.1-1.1 2.55-1.1h4.95q0-4.25 2.85-7.225Q19.5 1 23.75 1t7.35 2.975q3.1 2.975 3.1 7.225h4.95q1.45 0 2.55 1.1 1.1 1.1 1.1 2.55V41.6q0 1.45-1.1 2.55-1.1 1.1-2.55 1.1Z"/></svg>

<svg xmlns="http://www.w3.org/2000/svg" height="48" width="48"><path d="M17.45 11.2H30.55Q30.55 8.4 28.65 6.525Q26.75 4.65 24 4.65Q21.2 4.65 19.325 6.55Q17.45 8.45 17.45 11.2ZM24 27.6Q28.25 27.6 31.35 24.5Q34.45 21.4 34.45 17.15H30.8Q30.8 19.95 28.775 21.95Q26.75 23.95 24 23.95Q21.2 23.95 19.2 21.925Q17.2 19.9 17.2 17.15H13.55Q13.55 21.4 16.65 24.5Q19.75 27.6 24 27.6ZM39.15 45.25H8.85Q7.4 45.25 6.3 44.15Q5.2 43.05 5.2 41.6V14.85Q5.2 13.4 6.3 12.3Q7.4 11.2 8.85 11.2H13.8Q13.8 6.95 16.65 3.975Q19.5 1 23.75 1Q28 1 31.1 3.975Q34.2 6.95 34.2 11.2H39.15Q40.6 11.2 41.7 12.3Q42.8 13.4 42.8 14.85V41.6Q42.8 43.05 41.7 44.15Q40.6 45.25 39.15 45.25Z"/></svg>
